X:1
T:Title
%%score ( 1 2 ) { 3 | 4 }
L:1/8
Q:1/4=130
M:3/4
K:Ab
V:1 treble nm="Grand Piano, Staff 1"
V:2 treble 
V:3 treble nm="Choir Pad, De Profundis, 88.77"
V:4 bass 
V:1
 [CF]4 [=EG]2 | [FA]4 [FA]2 | [FB]4 [FB]2 | [FA]4 [FA]2 | [CF]4 [EG]2 | [EA]3 [DB] [Cc]2 | %6
w: By~Traditional~English~Melody *||||||
 [Fd]4 [EB]2 | [Ec]4 [Ec]2 | F3 G [EA]2 | [FB]4 [FA]2 | [EG]4 [CF]2 | [C=E]6 | [B,G]3 [CA] [DB]2 | %13
w: |||||||
 [EA]4 [EG]2 | F4 =E2 | [CF]6- | [CF]2 z2 z2 |] %17
w: ||||
V:2
 x6 | x6 | x6 | x6 | x6 | x6 | x6 | x6 | D4 z2 | x6 | x6 | x6 | x6 | x6 | C2 C4 | x6 | x6 |] %17
V:3
 A,4 C2 | C4 C2 | D4 D2 | C4 C2 | A,4 B,2 | A,3 G, A,2 | A,4 G,2 | A,4 A,2 | A,3 B, A,2 | D4 D2 | %10
 B,4 A,2 | G,6 | E,4 F,2 | A,4 B,2 | A,2 G,4 | A,6- | A,2 z2 z2 |] %17
V:4
 F,4 C,2 | F,4 F,2 | B,,4 B,,2 | F,4 F,2 | F,4 E,D, | C,3 B,, A,,2 | D,4 E,2 | A,,4 A,,2 | %8
 D,4 C,2 | B,,3 C, D,2 | E,4 F,2 | C,6 | z2 z2 B,,2 | C,4 E,2 | F,2 C,4 | F,6- | F,2 z2 z2 |] %17

